!! 00000] TT[WS
!!!OTL: dongshanshang diandeng xishanshang ming
!!!ARE: Asia, China,ÿShanxi Ningwu
!! Ethnic Group: Han
!! WI, 132
!!!SCT: J0159
!!!YEM: Copyright 1995, estate of Helmut Schaffrath.
**kern
*ICvox
*Ivox
*M2/4
*k[b-]
*F:
{8a
8cc
8dd
16cc
16dd
=1
8ff
8dd
8cc
8dd
=2
8g
8cc
16dd
16cc
16a
16g
=3
2f}
=4
{8a
8cc
8dd
16cc
16dd
=5
8a
8dd
8cc
8g
=6
8f
16e
16d
4c
=7
8f
16c
16d
8e
8d
=8
2c}
==
!!!AGN: Xiaodiao. Qingge
!!!ONB: ESAC (Essen Associative Code) Database: CHINA
!!!AMT: simple duple
!!!AIN: vox
!!!EED: Helmut Schaffrath
!!!EEV: 1.0
*-
